logo/prismic-icon.svg

<?xml version="1.0" encoding="UTF-8"?>
<svg width="256px" height="256px" viewBox="0 0 256 256" version="1.1" xmlns="http://www.w3.org/2000/svg" xmlns:xlink="http://www.w3.org/1999/xlink">
    <title>Group</title>
    <g stroke="none" stroke-width="1" fill="none" fill-rule="evenodd">
        <g>
            <path d="M222.776889,8.54755556 C233.065479,14.0093584 241.474435,22.4381347 246.912,32.7395556 C252.48,43.1715556 255.445333,53.5182222 255.445333,82.0408889 L255.445333,132.138667 C255.445333,132.785369 255.054944,133.36814 254.457437,133.615546 C253.85993,133.862951 253.172239,133.726337 252.714667,133.269333 L252.714667,133.262222 L233.834667,114.346667 C232.335475,112.844466 231.493987,110.808528 231.495111,108.686222 L231.495111,85.5324444 C231.495111,64.1351111 229.269333,56.3768889 225.095111,48.5546667 C221.015333,40.8294691 214.707401,34.5091492 206.990222,30.4142222 C199.271448,26.2698667 191.608371,24.0470759 170.767405,24.0007396 L139.555556,24 C138.910146,23.9965726 138.329994,23.605703 138.084408,23.0088346 C137.838821,22.4119662 137.975895,21.7259877 138.432,21.2693333 L157.312,2.34666667 C158.805333,0.846222222 160.839111,7.10542736e-14 162.958222,7.10542736e-14 L173.575111,7.10542736e-14 C202.040889,7.10542736e-14 212.366222,2.97244444 222.776889,8.54755556 Z M183.601778,40 C201.237333,40 215.530667,54.3288889 215.530667,72 L215.530667,92.2595556 C215.527567,92.8978793 215.145348,93.4732862 214.558151,93.7236178 C213.970953,93.9739493 213.291142,93.8518245 212.828444,93.4115556 L187.086222,68.7502222 C185.379556,67.0435556 183.388444,65.8062222 181.262222,65.0311111 C179.458277,64.3477535 177.545039,63.9983586 175.616,64 L99.6266667,64 C98.9799645,63.9994312 98.3971931,63.6096106 98.1497878,63.0121035 C97.9023825,62.4145964 98.0389967,61.7269052 98.496,61.2693333 L117.404444,42.3395556 C118.897778,40.8462222 120.924444,40 123.043556,40 L183.601778,40 Z" fill="#E55638"></path>
            <path d="M234.218667,138.737778 L253.105778,157.660444 C254.599111,159.160889 255.445333,161.201778 255.445333,163.320889 L255.445333,173.966222 C255.445333,202.488889 252.48,212.835556 246.912,223.267556 C241.474435,233.568976 233.065479,241.997753 222.776889,247.459556 C212.366222,253.027556 202.040889,256 173.575111,256 L123.591111,256 C122.945702,255.996573 122.36555,255.605703 122.119963,255.008835 C121.874377,254.411966 122.011451,253.725988 122.467556,253.269333 L122.467556,253.276444 L141.347556,234.353778 C142.840889,232.853333 144.874667,232.007111 146.993778,232.007111 L170.097778,232.007111 C191.445333,232.007111 199.182222,229.781333 206.990222,225.592889 C214.707401,221.497962 221.015333,215.177642 225.095111,207.452444 C229.269333,199.630222 231.495111,191.872 231.495111,170.474667 L231.495111,139.868444 C231.498508,139.224848 231.887204,138.645936 232.481622,138.399167 C233.076041,138.152399 233.760456,138.285815 234.218667,138.737778 Z M194.311111,98.7306667 L213.198222,117.674667 C214.691556,119.175111 215.530667,121.208889 215.530667,123.335111 L215.530667,184.021333 C215.530667,201.692444 201.237333,216.021333 183.601778,216.021333 L163.384889,216.021333 C162.746565,216.018234 162.171158,215.636015 161.920827,215.048817 C161.670495,214.46162 161.79262,213.781809 162.232889,213.319111 L162.232889,213.312 L186.837333,187.505778 C188.544,185.799111 189.781333,183.808 190.556444,181.674667 C191.236089,179.867444 191.583014,177.952127 191.580444,176.021333 L191.580444,99.8613333 C191.581013,99.2146311 191.970834,98.6318597 192.568341,98.3844545 C193.165848,98.1370492 193.853539,98.2736634 194.311111,98.7306667 Z" fill="#F4C942"></path>
            <path d="M2.72355556,122.730667 L21.6177778,141.653333 C23.1111111,143.153778 23.9573333,145.194667 23.9573333,147.313778 L23.9573333,170.467556 C23.9573333,191.864889 26.176,199.623111 30.3573333,207.445333 C34.4352239,215.169502 40.7405664,221.48971 48.4551111,225.585778 C56.2631111,229.774222 64.0071111,232 85.3546667,232 L115.889778,232 C116.537775,231.997686 117.123183,232.38645 117.372414,232.984605 C117.621645,233.58276 117.48548,234.27218 117.027556,234.730667 L98.1333333,253.653333 C96.64,255.153778 94.6062222,256 92.4942222,256 L81.8702222,256 C53.4044444,256 43.0862222,253.027556 32.6755556,247.452444 C22.3843313,241.991783 13.9727862,233.562894 8.53333333,223.260444 C3.02101333,212.932764 0.0595669333,202.68872 0.000889237333,174.809357 L0,123.861333 C0.00339658045,123.217737 0.392093147,122.638825 0.986511347,122.392056 C1.58092955,122.145287 2.2653445,122.278704 2.72355556,122.730667 Z M42.6168889,162.588444 L42.6097778,162.588444 L68.3662222,187.249778 C70.0657778,188.956444 72.064,190.193778 74.1831111,190.968889 C75.9324444,191.637333 77.8382222,192 79.8293333,192 L155.818667,192 C156.464076,192.003427 157.044228,192.394297 157.289815,192.991165 C157.535401,193.588034 157.398327,194.274012 156.942222,194.730667 L138.040889,213.660444 C136.547556,215.153778 134.513778,216 132.401778,216 L71.8435556,216 C63.3660562,215.990575 55.2395176,212.61386 49.2516883,206.612695 C43.263859,200.61153 39.9052315,192.477499 39.9146468,184 L39.9146468,163.740444 C39.9177662,163.102121 40.2999854,162.526714 40.8871828,162.276382 C41.4743803,162.026051 42.1541908,162.148175 42.6168889,162.588444 Z" fill="#7B8FEA"></path>
            <path d="M92.0604444,40 C92.6987681,40.0030996 93.2741751,40.3853187 93.5245067,40.9725162 C93.7748382,41.5597136 93.6527134,42.2395242 93.2124444,42.7022222 L68.6008889,68.5155556 C66.8942222,70.2222222 65.664,72.2133333 64.8888889,74.3466667 C64.2068179,76.1534395 63.8574809,78.0687701 63.8577778,80 L63.8577778,156.16 C63.851554,156.802305 63.4618165,157.378623 62.8680236,157.623582 C62.2742307,157.868541 61.5915082,157.734648 61.1342222,157.283556 L42.2471111,138.339556 C40.7522666,136.837938 39.9135387,134.805046 39.9146655,132.686222 L39.9146655,72 C39.9146655,54.3288889 54.208,40 71.8435556,40 L92.0604444,40 Z M131.854222,0 C132.499631,0.00342737526 133.079784,0.394296954 133.32537,0.991165377 C133.570957,1.5880338 133.433882,2.2740123 132.977778,2.73066667 L114.097778,21.6533333 C112.597333,23.1537778 110.570667,24 108.451556,24 L85.3475556,24 C64,24 56.256,26.2257778 48.448,30.4142222 C40.7308216,34.5091492 34.4228896,40.8294691 30.3431111,48.5546667 C26.2128281,56.2945497 23.9901855,63.971773 23.9438507,84.861257 L23.9431111,116.138667 C23.9397145,116.782263 23.551018,117.361175 22.9565998,117.607944 C22.3621816,117.854713 21.6777666,117.721296 21.2195556,117.269333 L2.34666667,98.3466667 C0.844866986,96.8456299 1.42108547e-14,94.8095482 1.42108547e-14,92.6862222 L1.42108547e-14,82.0408889 C1.42108547e-14,53.5182222 2.96533333,43.1715556 8.53333333,32.7395556 C13.9708984,22.4381347 22.3798539,14.0093584 32.6684444,8.54755556 C42.9750044,3.02819556 53.1979292,0.0597091556 81.0147729,0.000891363556 L131.854222,0 Z" fill="#D97EE8"></path>
        </g>
    </g>
</svg>

<svg viewBox="0 0 256 256" xmlns="http://www.w3.org/2000/svg"><g fill="#E55638" fill-rule="evenodd"><path d="M222.77 8.54c10.28 5.46 18.69 13.89 24.13 24.19 5.56 10.43 8.53 20.77 8.53 49.3v50.09c0 .64-.4 1.22-.99 1.47 -.6.24-1.29.11-1.75-.35v-.01l-18.88-18.92c-1.5-1.51-2.35-3.54-2.34-5.67V85.48c0-21.4-2.23-29.16-6.4-36.98 -4.08-7.73-10.39-14.05-18.11-18.15 -7.72-4.15-15.39-6.37-36.23-6.42l-31.22-.01c-.65-.01-1.23-.4-1.48-1s-.11-1.29.34-1.74l18.88-18.93c1.49-1.51 3.52-2.35 5.64-2.35h10.61c28.46 0 38.79 2.97 49.2 8.54Zm-39.18 31.45c17.63 0 31.92 14.32 31.92 32v20.25c-.01.63-.39 1.21-.98 1.46s-1.27.12-1.73-.32l-25.75-24.67c-1.71-1.71-3.7-2.95-5.83-3.72 -1.81-.69-3.72-1.04-5.65-1.04H99.58c-.65-.01-1.23-.4-1.48-.99 -.25-.6-.12-1.29.34-1.75l18.9-18.93c1.49-1.5 3.52-2.34 5.63-2.34h60.55Z"/><path fill="#F4C942" d="M234.21 138.73l18.88 18.92c1.49 1.5 2.33 3.54 2.33 5.66v10.64c0 28.52-2.97 38.86-8.54 49.3 -5.44 10.3-13.85 18.73-24.14 24.19 -10.42 5.56-20.74 8.54-49.21 8.54h-49.99c-.65-.01-1.23-.4-1.48-1s-.11-1.29.34-1.74v0l18.88-18.93c1.49-1.51 3.52-2.35 5.64-2.35h23.1c21.34 0 29.08-2.23 36.89-6.42 7.71-4.1 14.02-10.42 18.1-18.15 4.17-7.83 6.4-15.59 6.4-36.98V139.8c0-.65.39-1.23.98-1.47 .59-.25 1.27-.12 1.73.33ZM194.3 98.72l18.88 18.94c1.49 1.5 2.33 3.53 2.33 5.66V184c0 17.67-14.3 32-31.93 32h-20.22c-.64-.01-1.22-.39-1.47-.98 -.26-.59-.13-1.27.31-1.73v-.01l24.6-25.81c1.7-1.71 2.94-3.7 3.71-5.84 .67-1.81 1.02-3.73 1.02-5.66V99.81c0-.65.39-1.23.98-1.48s1.28-.12 1.74.34Z"/><path fill="#7B8FEA" d="M2.72 122.73l18.89 18.92c1.49 1.5 2.33 3.54 2.33 5.66v23.15c0 21.39 2.21 29.15 6.4 36.97 4.07 7.72 10.38 14.04 18.09 18.14 7.8 4.18 15.552 6.41 36.89 6.41h30.53c.64-.01 1.23.38 1.48.98 .24.59.11 1.28-.35 1.74l-18.9 18.92c-1.5 1.5-3.53 2.34-5.64 2.34H81.81c-28.47 0-38.784-2.98-49.2-8.55 -10.3-5.47-18.71-13.89-24.15-24.2 -5.52-10.33-8.48-20.58-8.54-48.46l-.01-50.95c0-.65.39-1.23.98-1.47 .59-.25 1.27-.12 1.73.33Zm39.89 39.85h-.01l25.75 24.66c1.69 1.7 3.69 2.94 5.81 3.71 1.74.66 3.65 1.03 5.64 1.03h75.98c.64 0 1.22.39 1.47.99 .24.59.1 1.28-.35 1.73l-18.91 18.92c-1.5 1.49-3.53 2.33-5.64 2.33H71.79c-8.48-.01-16.61-3.39-22.6-9.39 -5.99-6.01-9.35-14.14-9.34-22.62v-20.26c0-.64.38-1.22.97-1.47 .58-.26 1.26-.13 1.72.31Z"/><path fill="#D97EE8" d="M92.06 40c.63 0 1.21.38 1.46.97 .25.58.12 1.26-.32 1.72L68.58 68.5c-1.71 1.7-2.94 3.69-3.72 5.83 -.69 1.8-1.04 3.72-1.04 5.65v76.16c-.01.64-.4 1.21-.99 1.46 -.6.24-1.28.11-1.74-.35L42.2 138.3c-1.5-1.51-2.34-3.54-2.34-5.66V71.95c0-17.68 14.29-32 31.92-32h20.21Zm39.79-40c.64 0 1.22.39 1.47.99 .24.59.1 1.28-.35 1.73l-18.88 18.92c-1.51 1.5-3.53 2.34-5.65 2.34H85.33c-21.35 0-29.1 2.22-36.9 6.41 -7.72 4.09-14.03 10.41-18.11 18.14 -4.14 7.73-6.36 15.41-6.4 36.3l-.01 31.27c-.01.64-.4 1.22-.99 1.46 -.6.24-1.28.11-1.74-.34L2.3 98.29C.79 96.78-.05 94.75-.05 92.62V81.97c0-28.53 2.96-38.87 8.53-49.31 5.43-10.31 13.84-18.74 24.13-24.2C42.91 2.94 53.13-.03 80.95-.09l50.83-.01Z"/></g></svg>
